icon/lg/workboard.svg

<?xml version="1.0" encoding="UTF-8" standalone="no"?>
<svg viewBox="0 0 256 256" version="1.1" xmlns="http://www.w3.org/2000/svg" xmlns:xlink="http://www.w3.org/1999/xlink" preserveAspectRatio="xMidYMid" height="1em" width="1em">
  <g>
    <path d="M256,128 C256,198.692 198.692,256 128,256 C57.308,256 0,198.692 0,128 C0,57.308 57.308,0 128,0 C198.692,0 256,57.308 256,128" fill="#51BBD6"/>
    <path d="M101.9803,110.0758 L101.9803,75.4138 L157.7963,94.1468 L101.9803,110.0758 Z M157.7963,164.7908 L101.9803,181.7018 L101.9803,146.8228 L157.7963,164.7908 Z M194.7283,81.6958 L101.9803,48.6668 L101.9803,32.5948 L76.3803,32.5948 L76.3803,223.5458 L101.9803,223.5458 L101.9803,208.6848 L194.7283,180.3188 L194.7283,154.7188 L126.3213,129.1188 L194.7283,107.7158 L194.7283,81.6958 Z" fill="#FFFFFF"/>
  </g>
</svg>

<svg width="256" height="256" xmlns="http://www.w3.org/2000/svg" preserveAspectRatio="xMidYMid"><path d="M256 128c0 70.692-57.308 128-128 128C57.308 256 0 198.692 0 128 0 57.308 57.308 0 128 0c70.692 0 128 57.308 128 128" fill="#51BBD6"/><path d="M101.98 110.076V75.414l55.816 18.733-55.816 15.929Zm55.816 54.715L101.98 181.7v-34.878l55.816 17.968Zm36.932-83.095-92.748-33.03V32.596h-25.6v190.95h25.6v-14.86l92.748-28.366v-25.6l-68.407-25.6 68.407-21.403v-26.02Z" fill="#FFF"/></svg>
